X: 4301
T: Bodhran Maker's, The
R: jig
M: 6/8
K: Dmixolydian
A|:d^cd AFD|A,DF (A2d)|cBc GEC|G,CE (G2c)|
d^cd AFD|A,DF (A2d)|cBc AGE|ADD (D2A):|
d^cd A2A|d^cd Az2|cBc E2E|GAB BAG|
d^cd A2A|d^cd A2B|cBc AGE|ADD (D2A)||
d^cd .A2 (A|A4) zB|cBc .E2 (E|E4) z^c|
d^cd .A2 (A|A4) zB|cBc AGE|ADD D3||

